X:536
M:C
L:1/8
K:F
|:b|affg a>gfc|egfg eccb|1 affg a>gfc|dbge f2f:|2 f/g/|afge fdcB|Afge f2f||
|:c|A/B/c cf dBBd|A/B/c ce fcac|A/B/c cf dBBd|cbge f2f:|
g|bggb affa|bece cega|bgbg afaf|ecge f2fg|bggb affa|gece fdcB|AfBf cfdf|
e/f/g ge f2f||

